X:23
T:Reform Hornpipe. JBu.23
T:Cliff Hornpipe,aka. JBu.23
O:England,South Yorkshire
S:Joshua Burnett’s MS,c1835,S.Yorkshire
M:C|
L:1/8
Q:1/2=80
R:.hornpipe
Z:vmp.R.Greig.2010
K:F
cA|F>Ac>A G>Bd>B|Acfg afcA|Bdfb Ac”^sic”ea|(3gag (3fed (3cdc (3BAG|
F>Ac>A G>Bd>B|Acfg afcA|Bdfb afge|f2a2f2:|
|:a2|g2c>cc2a2|g2c>cc3a|bgaf gefd|ecdB cABG|
F>Ac>A G>Bd>B|A>cf>g a>fc>A|B>df>b a>fg>e|f2a2f2:|

